ii/random.svg

<svg xmlns="http://www.w3.org/2000/svg" viewBox="0 0 8 8" height="1em" width="1em">
  <path d="M6 0v1h-.5c-.35 0-.56.1-.78.38l-1.41 1.78-1.53-1.78c-.22-.26-.44-.38-.78-.38h-1v1h1c-.05 0 .01.04.03.03l1.63 1.91-1.66 2.06h-1v1h1c.35 0 .56-.1.78-.38l1.53-1.91 1.66 1.91c.22.26.44.38.78.38h.25v1l2-1.5-2-1.5v1h-.22c-.01-.01-.05-.04-.06-.03l-1.75-2.06 1.53-1.91h.5v1l2-1.5-2-1.5z"/>
</svg>

<svg xmlns="http://www.w3.org/2000/svg" viewBox="0 0 8 8" height="1em" width="1em">
  <path d="M6 0v1h-.5c-.35 0-.56.1-.78.38L3.31 3.16 1.78 1.38C1.56 1.12 1.34 1 1 1H0v1h1c-.05 0 .01.04.03.03l1.63 1.91L1 6H0v1h1c.35 0 .56-.1.78-.38l1.53-1.91 1.66 1.91c.22.26.44.38.78.38H6v1l2-1.5L6 5v1h-.22c-.01-.01-.05-.04-.06-.03L3.97 3.91 5.5 2H6v1l2-1.5L6 0z"/>
</svg>
